; generated by PrusaSlicer 2.5.0+win64 on 2022-11-13 at 04:51:13 UTC

; 

; external perimeters extrusion width = 0.45mm
; perimeters extrusion width = 0.45mm
; infill extrusion width = 0.45mm
; solid infill extrusion width = 0.45mm
; top infill extrusion width = 0.40mm
; support material extrusion width = 0.35mm
; first layer extrusion width = 0.42mm

M73 P0 R16
M73 Q0 S16
M201 X1000 Y1000 Z200 E5000 ; sets maximum accelerations, mm/sec^2
M203 X200 Y200 Z12 E120 ; sets maximum feedrates, mm / sec
M204 P1250 R1250 T1250 ; sets acceleration (P, T) and retract acceleration (R), mm/sec^2
M205 X8.00 Y8.00 Z0.40 E4.50 ; sets the jerk limits, mm/sec
M205 S0 T0 ; sets the minimum extruding and travel feed rate, mm/sec
M107
;TYPE:Custom
M862.3 P "MK3S" ; printer model check
M862.1 P0.4 ; nozzle diameter check
M115 U3.10.1 ; tell printer latest fw version
G90 ; use absolute coordinates
M83 ; extruder relative mode
M104 S215 ; set extruder temp
M140 S60 ; set bed temp
M190 S60 ; wait for bed temp
M109 S215 ; wait for extruder temp
G28 W ; home all without mesh bed level
G80 ; mesh bed leveling
G1 Z0.2 F720
G1 Y-3 F1000 ; go outside print area
G92 E0
G1 X60 E9 F1000 ; intro line
G1 X100 E12.5 F1000 ; intro line
G92 E0
M221 S95

; Don't change E values below. Excessive value can damage the printer.

M907 E538 ; set extruder motor current
G21 ; set units to millimeters
G90 ; use absolute coordinates
M83 ; use relative distances for extrusion
M900 K0.05 ; Filament gcode LA 1.5
M900 K30 ; Filament gcode LA 1.0
M107
;LAYER_CHANGE
;Z:0.2
;HEIGHT:0.2
;BEFORE_LAYER_CHANGE
G92 E0.0
;0.2


G1 E-.8 F2100
G1 Z.4 F720
;AFTER_LAYER_CHANGE
;0.2
G1 X95.616 Y152.467 F10800
G1 Z.2 F720
G1 E.8 F2100
M204 S800
;TYPE:Skirt/Brim
;WIDTH:0.42
G1 F1200
G1 X96.555 Y152.273 E.03008
G1 X153.445 Y152.273 E1.78373
G1 X154.752 Y152.665 E.04278
M73 P1 R16
M73 Q1 S16
G1 X155.628 Y153.711 E.04278
G1 X155.822 Y154.651 E.03008
G1 X155.822 Y167.502 E.40294
G1 X155.43 Y168.809 E.04278
G1 X154.021 Y169.808 E.05416
G1 X144.75 Y172.125 E.29964
G1 X144.173 Y172.196 E.01821
G1 X105.827 Y172.196 E1.20234
G1 X105.25 Y172.125 E.01821
G1 X95.979 Y169.808 E.29964
G1 X94.806 Y169.111 E.04278
G1 X94.178 Y167.502 E.05416
G1 X94.178 Y154.651 E.40294
G1 X94.57 Y153.343 E.04278
G1 X95.57 Y152.506 E.0409
M204 S1000
; printing object vernier_calipers-Moving JawBevel.stl id:0 copy 0
;WIPE_START
G1 F8640
G1 X96.555 Y152.273 E-.23384
G1 X98.834 Y152.273 E-.52616
;WIPE_END
G1 E-.04 F2100
G1 Z.6 F720
G1 X104.771 Y159.29 F10800
G1 Z.2 F720
G1 E.8 F2100
M204 S800
;TYPE:Support material
G1 F1200
G1 X101.201 Y159.29 E.11192
G1 X100.92 Y159.571 E.01247
G1 X100.92 Y162.969 E.10653
G1 X101.201 Y163.25 E.01247
G1 X104.771 Y163.25 E.11192
G1 X104.771 Y167.502 E.1333
G1 X96.555 Y167.502 E.25759
G1 X96.555 Y154.651 E.40294
G1 X104.771 Y154.651 E.25759
G1 X104.771 Y159.234 E.1437
M204 S1000
;WIPE_START
G1 F8640
G1 X104.771 Y155.942 E-.76
;WIPE_END
G1 E-.04 F2100
G1 Z.6 F720
G1 X104.051 Y167.332 F10800
G1 Z.2 F720
G1 E.8 F2100
M204 S800
G1 F1200
G1 X104.051 Y163.59 E.11734
G1 X103.632 Y163.59 E.01314
G1 X103.632 Y167.162 E.11202
G1 X103.213 Y167.162 E.01314
G1 X103.213 Y163.59 E.11202
G1 X102.794 Y163.59 E.01314
G1 X102.794 Y167.162 E.11202
G1 X102.375 Y167.162 E.01314
M73 Q2 S16
G1 X102.375 Y163.59 E.11202
G1 X101.956 Y163.59 E.01314
M73 P2 R16
G1 X101.956 Y167.162 E.11202
G1 X101.537 Y167.162 E.01314
G1 X101.537 Y163.59 E.11202
G1 X101.118 Y163.59 E.01314
G1 X101.118 Y167.162 E.11202
G1 X100.699 Y167.162 E.01314
G1 X100.699 Y154.99 E.38165
G1 X101.118 Y154.99 E.01314
G1 X101.118 Y158.951 E.12419
G1 X101.537 Y158.951 E.01314
G1 X101.537 Y154.99 E.12419
G1 X101.956 Y154.99 E.01314
G1 X101.956 Y158.951 E.12419
G1 X102.375 Y158.951 E.01314
G1 X102.375 Y154.99 E.12419
G1 X102.794 Y154.99 E.01314
G1 X102.794 Y158.951 E.12419
G1 X103.213 Y158.951 E.01314
G1 X103.213 Y154.99 E.12419
G1 X103.632 Y154.99 E.01314
G1 X103.632 Y158.951 E.12419
G1 X104.051 Y158.951 E.01314
G1 X104.051 Y154.82 E.12951
M204 S1000
;WIPE_START
G1 F8640
M73 P2 R15
G1 X104.051 Y158.112 E-.76
;WIPE_END
G1 E-.04 F2100
G1 Z.6 F720
G1 X100.28 Y167.332 F10800
G1 Z.2 F720
G1 E.8 F2100
M204 S800
G1 F1200
G1 X100.28 Y154.99 E.38697
G1 X99.861 Y154.99 E.01314
G1 X99.861 Y167.162 E.38165
G1 X99.442 Y167.162 E.01314
G1 X99.442 Y154.99 E.38165
G1 X99.023 Y154.99 E.01314
G1 X99.023 Y167.162 E.38165
G1 X98.604 Y167.162 E.01314
G1 X98.604 Y154.99 E.38165
G1 X98.185 Y154.99 E.01314
G1 X98.185 Y167.162 E.38165
G1 X97.766 Y167.162 E.01314
G1 X97.766 Y154.99 E.38165
G1 X97.348 Y154.99 E.01314
G1 X97.348 Y167.162 E.38165
G1 X96.929 Y167.162 E.01314
G1 X96.929 Y154.82 E.38697
M204 S1000
;WIPE_START
G1 F8640
G1 X96.929 Y158.112 E-.76
;WIPE_END
G1 E-.04 F2100
G1 Z.6 F720
G1 X108.52 Y164.069 F10800
M73 P3 R15
M73 Q3 S16
G1 Z.2 F720
G1 E.8 F2100
M204 S800
G1 F1200
G1 X108.801 Y164.35 E.01247
G1 X141.199 Y164.35 E1.01581
G1 X141.48 Y164.069 E.01247
G1 X141.48 Y163.25 E.02567
G1 X144.173 Y163.25 E.08445
G1 X144.173 Y169.819 E.20597
G1 X105.827 Y169.819 E1.20234
G1 X105.827 Y163.25 E.20597
G1 X108.52 Y163.25 E.08445
G1 X108.52 Y164.013 E.0239
M204 S1000
;WIPE_START
G1 F8640
G1 X108.52 Y163.25 E-.17601
G1 X105.991 Y163.25 E-.58399
;WIPE_END
G1 E-.04 F2100
G1 Z.6 F720
G1 X143.435 Y169.65 F10800
G1 Z.2 F720
G1 E.8 F2100
M204 S800
G1 F1200
G1 X143.435 Y163.59 E.19001
G1 X143.016 Y163.59 E.01314
G1 X143.016 Y169.48 E.18469
G1 X142.597 Y169.48 E.01314
G1 X142.597 Y163.59 E.18469
G1 X142.178 Y163.59 E.01314
G1 X142.178 Y169.48 E.18469
G1 X141.759 Y169.48 E.01314
G1 X141.759 Y164.27 E.16336
G1 X141.34 Y164.689 E.01858
G1 X141.34 Y169.48 E.15022
G1 X140.921 Y169.48 E.01314
G1 X140.921 Y164.69 E.1502
G1 X140.502 Y164.69 E.01314
G1 X140.502 Y169.48 E.1502
G1 X140.083 Y169.48 E.01314
G1 X140.083 Y164.69 E.1502
G1 X139.664 Y164.69 E.01314
G1 X139.664 Y169.48 E.1502
G1 X139.245 Y169.48 E.01314
G1 X139.245 Y164.69 E.1502
G1 X138.826 Y164.69 E.01314
G1 X138.826 Y169.48 E.1502
G1 X138.407 Y169.48 E.01314
G1 X138.407 Y164.69 E.1502
G1 X137.988 Y164.69 E.01314
G1 X137.988 Y169.48 E.1502
G1 X137.569 Y169.48 E.01314
M73 P4 R15
G1 X137.569 Y164.69 E.1502
G1 X137.15 Y164.69 E.01314
M73 Q4 S16
G1 X137.15 Y169.48 E.1502
G1 X136.731 Y169.48 E.01314
G1 X136.731 Y164.69 E.1502
G1 X136.312 Y164.69 E.01314
G1 X136.312 Y169.48 E.1502
G1 X135.893 Y169.48 E.01314
G1 X135.893 Y164.69 E.1502
G1 X135.474 Y164.69 E.01314
G1 X135.474 Y169.48 E.1502
G1 X135.055 Y169.48 E.01314
G1 X135.055 Y164.69 E.1502
G1 X134.636 Y164.69 E.01314
G1 X134.636 Y169.48 E.1502
G1 X134.217 Y169.48 E.01314
G1 X134.217 Y164.69 E.1502
G1 X133.799 Y164.69 E.01314
G1 X133.799 Y169.48 E.1502
G1 X133.38 Y169.48 E.01314
G1 X133.38 Y164.69 E.1502
G1 X132.961 Y164.69 E.01314
M73 Q4 S15
G1 X132.961 Y169.48 E.1502
G1 X132.542 Y169.48 E.01314
G1 X132.542 Y164.69 E.1502
G1 X132.123 Y164.69 E.01314
G1 X132.123 Y169.48 E.1502
G1 X131.704 Y169.48 E.01314
G1 X131.704 Y164.69 E.1502
G1 X131.285 Y164.69 E.01314
G1 X131.285 Y169.48 E.1502
G1 X130.866 Y169.48 E.01314
G1 X130.866 Y164.69 E.1502
G1 X130.447 Y164.69 E.01314
G1 X130.447 Y169.48 E.1502
G1 X130.028 Y169.48 E.01314
G1 X130.028 Y164.69 E.1502
G1 X129.609 Y164.69 E.01314
G1 X129.609 Y169.48 E.1502
G1 X129.19 Y169.48 E.01314
G1 X129.19 Y164.69 E.1502
G1 X128.771 Y164.69 E.01314
G1 X128.771 Y169.48 E.1502
G1 X128.352 Y169.48 E.01314
G1 X128.352 Y164.69 E.1502
G1 X127.933 Y164.69 E.01314
G1 X127.933 Y169.48 E.1502
G1 X127.514 Y169.48 E.01314
G1 X127.514 Y164.69 E.1502
G1 X127.095 Y164.69 E.01314
G1 X127.095 Y169.48 E.1502
G1 X126.676 Y169.48 E.01314
G1 X126.676 Y164.69 E.1502
G1 X126.257 Y164.69 E.01314
G1 X126.257 Y169.48 E.1502
G1 X125.838 Y169.48 E.01314
G1 X125.838 Y164.69 E.1502
G1 X125.419 Y164.69 E.01314
G1 X125.419 Y169.48 E.1502
G1 X125 Y169.48 E.01314
G1 X125 Y164.69 E.1502
G1 X124.581 Y164.69 E.01314
G1 X124.581 Y169.48 E.1502
G1 X124.162 Y169.48 E.01314
G1 X124.162 Y164.69 E.1502
G1 X123.743 Y164.69 E.01314
G1 X123.743 Y169.48 E.1502
G1 X123.324 Y169.48 E.01314
G1 X123.324 Y164.69 E.1502
G1 X122.905 Y164.69 E.01314
G1 X122.905 Y169.48 E.1502
G1 X122.486 Y169.48 E.01314
M73 P5 R15
G1 X122.486 Y164.69 E.1502
G1 X122.067 Y164.69 E.01314
M73 Q5 S15
G1 X122.067 Y169.48 E.1502
G1 X121.648 Y169.48 E.01314
G1 X121.648 Y164.69 E.1502
G1 X121.229 Y164.69 E.01314
G1 X121.229 Y169.48 E.1502
G1 X120.81 Y169.48 E.01314
G1 X120.81 Y164.69 E.1502
G1 X120.391 Y164.69 E.01314
G1 X120.391 Y169.48 E.1502
G1 X119.972 Y169.48 E.01314
G1 X119.972 Y164.69 E.1502
G1 X119.553 Y164.69 E.01314
G1 X119.553 Y169.48 E.1502
G1 X119.134 Y169.48 E.01314
G1 X119.134 Y164.69 E.1502
G1 X118.715 Y164.69 E.01314
G1 X118.715 Y169.48 E.1502
G1 X118.296 Y169.48 E.01314
G1 X118.296 Y164.69 E.1502
G1 X117.877 Y164.69 E.01314
G1 X117.877 Y169.48 E.1502
G1 X117.458 Y169.48 E.01314
G1 X117.458 Y164.69 E.1502
G1 X117.039 Y164.69 E.01314
G1 X117.039 Y169.48 E.1502
G1 X116.62 Y169.48 E.01314
G1 X116.62 Y164.69 E.1502
G1 X116.201 Y164.69 E.01314
G1 X116.201 Y169.48 E.1502
G1 X115.783 Y169.48 E.01314
G1 X115.783 Y164.69 E.1502
G1 X115.364 Y164.69 E.01314
G1 X115.364 Y169.48 E.1502
G1 X114.945 Y169.48 E.01314
G1 X114.945 Y164.69 E.1502
G1 X114.526 Y164.69 E.01314
G1 X114.526 Y169.48 E.1502
G1 X114.107 Y169.48 E.01314
G1 X114.107 Y164.69 E.1502
G1 X113.688 Y164.69 E.01314
G1 X113.688 Y169.48 E.1502
G1 X113.269 Y169.48 E.01314
G1 X113.269 Y164.69 E.1502
G1 X112.85 Y164.69 E.01314
G1 X112.85 Y169.48 E.1502
G1 X112.431 Y169.48 E.01314
G1 X112.431 Y164.69 E.1502
G1 X112.012 Y164.69 E.01314
G1 X112.012 Y169.48 E.1502
G1 X111.593 Y169.48 E.01314
G1 X111.593 Y164.69 E.1502
G1 X111.174 Y164.69 E.01314
G1 X111.174 Y169.48 E.1502
G1 X110.755 Y169.48 E.01314
G1 X110.755 Y164.69 E.1502
G1 X110.336 Y164.69 E.01314
G1 X110.336 Y169.48 E.1502
G1 X109.917 Y169.48 E.01314
G1 X109.917 Y164.69 E.1502
G1 X109.498 Y164.69 E.01314
G1 X109.498 Y169.48 E.1502
G1 X109.079 Y169.48 E.01314
G1 X109.079 Y164.69 E.1502
G1 X108.66 Y164.689 E.01314
G1 X108.66 Y169.48 E.15022
G1 X108.241 Y169.48 E.01314
G1 X108.241 Y164.27 E.16336
G1 X108.181 Y164.21 E.00267
M73 P6 R15
G1 X108.181 Y163.59 E.01944
G1 X107.822 Y163.59 E.01125
G1 X107.822 Y169.48 E.18469
G1 X107.403 Y169.48 E.01314
M73 Q6 S15
G1 X107.403 Y163.59 E.18469
G1 X106.984 Y163.59 E.01314
G1 X106.984 Y169.48 E.18469
G1 X106.565 Y169.48 E.01314
G1 X106.565 Y163.42 E.19001
M204 S1000
;WIPE_START
G1 F8640
G1 X106.565 Y166.711 E-.76
;WIPE_END
G1 E-.04 F2100
G1 Z.6 F720
G1 X153.445 Y167.502 F10800
G1 Z.2 F720
G1 E.8 F2100
M204 S800
G1 F1200
G1 X145.229 Y167.502 E.25759
G1 X145.229 Y163.25 E.1333
G1 X148.799 Y163.25 E.11192
G1 X149.08 Y162.969 E.01247
G1 X149.08 Y159.571 E.10653
G1 X148.799 Y159.29 E.01247
G1 X145.229 Y159.29 E.11192
G1 X145.229 Y154.651 E.14548
G1 X153.445 Y154.651 E.25759
G1 X153.445 Y167.445 E.40116
M204 S1000
G1 X153.071 Y167.332 F10800
M204 S800
G1 F1200
G1 X153.071 Y154.99 E.38697
G1 X152.652 Y154.99 E.01314
G1 X152.652 Y167.162 E.38165
G1 X152.234 Y167.162 E.01314
G1 X152.234 Y154.99 E.38165
G1 X151.815 Y154.99 E.01314
G1 X151.815 Y167.162 E.38165
G1 X151.396 Y167.162 E.01314
G1 X151.396 Y154.99 E.38165
G1 X150.977 Y154.99 E.01314
G1 X150.977 Y167.162 E.38165
G1 X150.558 Y167.162 E.01314
G1 X150.558 Y154.99 E.38165
G1 X150.139 Y154.99 E.01314
G1 X150.139 Y167.162 E.38165
G1 X149.72 Y167.162 E.01314
M73 P7 R15
G1 X149.72 Y154.99 E.38165
G1 X149.301 Y154.99 E.01314
M73 Q7 S15
G1 X149.301 Y167.162 E.38165
G1 X148.882 Y167.162 E.01314
G1 X148.882 Y163.59 E.11202
G1 X148.463 Y163.59 E.01314
G1 X148.463 Y167.162 E.11202
G1 X148.044 Y167.162 E.01314
G1 X148.044 Y163.59 E.11202
G1 X147.625 Y163.59 E.01314
G1 X147.625 Y167.162 E.11202
G1 X147.206 Y167.162 E.01314
G1 X147.206 Y163.59 E.11202
G1 X146.787 Y163.59 E.01314
G1 X146.787 Y167.162 E.11202
G1 X146.368 Y167.162 E.01314
G1 X146.368 Y163.59 E.11202
G1 X145.949 Y163.59 E.01314
G1 X145.949 Y167.332 E.11734
M204 S1000
;WIPE_START
G1 F8640
G1 X145.949 Y164.04 E-.76
;WIPE_END
G1 E-.04 F2100
G1 Z.6 F720
G1 X148.882 Y159.133 F10800
G1 Z.2 F720
G1 E.8 F2100
M204 S800
G1 F1200
G1 X148.882 Y154.99 E.12991
G1 X148.463 Y154.99 E.01314
G1 X148.463 Y158.951 E.12419
G1 X148.044 Y158.951 E.01314
G1 X148.044 Y154.99 E.12419
G1 X147.625 Y154.99 E.01314
G1 X147.625 Y158.951 E.12419
G1 X147.206 Y158.951 E.01314
G1 X147.206 Y154.99 E.12419
G1 X146.787 Y154.99 E.01314
G1 X146.787 Y158.951 E.12419
G1 X146.368 Y158.951 E.01314
G1 X146.368 Y154.99 E.12419
G1 X145.949 Y154.99 E.01314
G1 X145.949 Y159.121 E.12951
M204 S1000
;WIPE_START
G1 F8640
G1 X145.949 Y155.829 E-.76
;WIPE_END
G1 E-.04 F2100
G1 Z.6 F720
G1 X140.23 Y162.469 F10800
G1 Z.2 F720
G1 E.8 F2100
M204 S800
;TYPE:Perimeter
;WIDTH:0.419999
G1 F1200
G1 X140.213 Y162.549 E.00256
G1 X140.213 Y163.083 E.01676
G1 X109.787 Y163.083 E.95398
G1 X109.787 Y162.549 E.01676
G1 X109.74 Y162.323 E.00722
G1 X109.556 Y162.093 E.00924
G1 X109.221 Y161.983 E.01105
G1 X102.187 Y161.983 E.22056
G1 X102.187 Y160.557 E.04471
G1 X147.813 Y160.557 E1.43056
G1 X147.813 Y161.983 E.04471
M73 P8 R15
G1 X140.779 Y161.983 E.22056
G1 X140.444 Y162.093 E.01105
M73 Q8 S15
G1 X140.26 Y162.323 E.00924
G1 X140.242 Y162.41 E.00277
M204 S1000
G1 X140.59 Y162.549 F10800
M204 S800
;TYPE:External perimeter
G1 F1200
G1 X140.59 Y163.46 E.02858
G1 X109.41 Y163.46 E.97763
G1 X109.41 Y162.549 E.02858
G1 X109.333 Y162.397 E.00534
G1 X109.221 Y162.36 E.00368
G1 X101.81 Y162.36 E.23238
G1 X101.81 Y160.18 E.06835
G1 X148.19 Y160.18 E1.45421
G1 X148.19 Y162.36 E.06835
M73 P8 R14
G1 X140.779 Y162.36 E.23238
G1 X140.667 Y162.397 E.00368
G1 X140.617 Y162.495 E.00346
M204 S1000
G1 X140.204 Y162.652 F10800
;WIPE_START
G1 F8640
G1 X140.59 Y163.46 E-.22291
G1 X138.264 Y163.46 E-.53709
;WIPE_END
G1 E-.04 F2100
G1 Z.6 F720
G1 X147.7 Y161.438 F10800
G1 Z.2 F720
G1 E.8 F2100
M204 S800
;TYPE:Solid infill
;WIDTH:0.422275
G1 F1200
G1 X147.102 Y160.84 E.02665
G1 X146.566 Y160.84 E.01692
G1 X147.426 Y161.701 E.03839
G1 X146.891 Y161.702 E.0169
G1 X146.029 Y160.84 E.03843
G1 X145.493 Y160.84 E.01692
G1 X146.355 Y161.702 E.03847
G1 X145.82 Y161.703 E.0169
G1 X144.956 Y160.84 E.03851
G1 X144.42 Y160.84 E.01692
G1 X145.284 Y161.704 E.03854
G1 X144.748 Y161.705 E.0169
G1 X143.883 Y160.84 E.03858
G1 X143.347 Y160.84 E.01692
G1 X144.213 Y161.706 E.03862
G1 X143.677 Y161.707 E.0169
G1 X142.81 Y160.84 E.03866
G1 X142.274 Y160.84 E.01692
G1 X143.142 Y161.708 E.0387
G1 X142.606 Y161.709 E.0169
G1 X141.738 Y160.84 E.03874
G1 X141.201 Y160.84 E.01692
G1 X142.07 Y161.709 E.03878
G1 X141.535 Y161.71 E.0169
G1 X140.665 Y160.84 E.03882
G1 X140.128 Y160.84 E.01692
G1 X140.999 Y161.711 E.03886
G1 X140.629 Y161.712 E.01168
G1 X140.513 Y161.761 E.00398
G1 X139.592 Y160.84 E.04109
G1 X139.055 Y160.84 E.01692
G1 X140.187 Y161.972 E.05049
G1 X139.999 Y162.207 E.00949
G1 X139.98 Y162.301 E.00303
G1 X138.519 Y160.84 E.06517
G1 X137.982 Y160.84 E.01692
G1 X139.93 Y162.788 E.0869
G1 X139.406 Y162.8 E.01654
G1 X137.446 Y160.84 E.08745
G1 X136.909 Y160.84 E.01692
G1 X138.869 Y162.8 E.08745
G1 X138.333 Y162.8 E.01692
G1 X136.373 Y160.84 E.08745
G1 X135.836 Y160.84 E.01692
G1 X137.796 Y162.8 E.08745
G1 X137.26 Y162.8 E.01692
G1 X135.3 Y160.84 E.08745
G1 X134.763 Y160.84 E.01692
G1 X136.723 Y162.8 E.08745
G1 X136.187 Y162.8 E.01692
G1 X134.227 Y160.84 E.08745
G1 X133.69 Y160.84 E.01692
G1 X135.65 Y162.8 E.08745
M73 P9 R14
G1 X135.114 Y162.8 E.01692
G1 X133.154 Y160.84 E.08745
G1 X132.617 Y160.84 E.01692
G1 X134.577 Y162.8 E.08745
G1 X134.041 Y162.8 E.01692
G1 X132.081 Y160.84 E.08745
G1 X131.544 Y160.84 E.01692
G1 X133.504 Y162.8 E.08745
G1 X132.968 Y162.8 E.01692
G1 X131.008 Y160.84 E.08745
G1 X130.471 Y160.84 E.01692
M73 Q9 S15
G1 X132.431 Y162.8 E.08745
G1 X131.895 Y162.8 E.01692
G1 X129.935 Y160.84 E.08745
G1 X129.398 Y160.84 E.01692
G1 X131.359 Y162.8 E.08745
G1 X130.822 Y162.8 E.01692
G1 X128.862 Y160.84 E.08745
G1 X128.325 Y160.84 E.01692
G1 X130.286 Y162.8 E.08745
G1 X129.749 Y162.8 E.01692
G1 X127.789 Y160.84 E.08745
G1 X127.252 Y160.84 E.01692
G1 X129.213 Y162.8 E.08745
G1 X128.676 Y162.8 E.01692
G1 X126.716 Y160.84 E.08745
G1 X126.179 Y160.84 E.01692
