; generated by PrusaSlicer 2.5.0+win64 on 2022-11-13 at 04:37:41 UTC

; 

; external perimeters extrusion width = 0.45mm
; perimeters extrusion width = 0.45mm
; infill extrusion width = 0.45mm
; solid infill extrusion width = 0.45mm
; top infill extrusion width = 0.40mm
; support material extrusion width = 0.35mm
; first layer extrusion width = 0.42mm

; external perimeters extrusion width = 0.45mm
; perimeters extrusion width = 0.45mm
; infill extrusion width = 0.45mm
; solid infill extrusion width = 0.45mm
; top infill extrusion width = 0.40mm
; support material extrusion width = 0.35mm
; first layer extrusion width = 0.42mm

; external perimeters extrusion width = 0.45mm
; perimeters extrusion width = 0.45mm
; infill extrusion width = 0.45mm
; solid infill extrusion width = 0.45mm
; top infill extrusion width = 0.40mm
; support material extrusion width = 0.35mm
; first layer extrusion width = 0.42mm

; external perimeters extrusion width = 0.45mm
; perimeters extrusion width = 0.45mm
; infill extrusion width = 0.45mm
; solid infill extrusion width = 0.45mm
; top infill extrusion width = 0.40mm
; support material extrusion width = 0.35mm
; first layer extrusion width = 0.42mm

; external perimeters extrusion width = 0.45mm
; perimeters extrusion width = 0.45mm
; infill extrusion width = 0.45mm
; solid infill extrusion width = 0.45mm
; top infill extrusion width = 0.40mm
; support material extrusion width = 0.35mm
; first layer extrusion width = 0.42mm

M73 P0 R131
M73 Q0 S136
M201 X1000 Y1000 Z200 E5000 ; sets maximum accelerations, mm/sec^2
M203 X200 Y200 Z12 E120 ; sets maximum feedrates, mm / sec
M204 P1250 R1250 T1250 ; sets acceleration (P, T) and retract acceleration (R), mm/sec^2
M205 X8.00 Y8.00 Z0.40 E4.50 ; sets the jerk limits, mm/sec
M205 S0 T0 ; sets the minimum extruding and travel feed rate, mm/sec
M107
;TYPE:Custom
M862.3 P "MK3S" ; printer model check
M862.1 P0.4 ; nozzle diameter check
M115 U3.10.1 ; tell printer latest fw version
G90 ; use absolute coordinates
M83 ; extruder relative mode
M104 S215 ; set extruder temp
M140 S60 ; set bed temp
M190 S60 ; wait for bed temp
M109 S215 ; wait for extruder temp
G28 W ; home all without mesh bed level
G80 ; mesh bed leveling
G1 Z0.2 F720
G1 Y-3 F1000 ; go outside print area
G92 E0
G1 X60 E9 F1000 ; intro line
G1 X100 E12.5 F1000 ; intro line
G92 E0
M221 S95

; Don't change E values below. Excessive value can damage the printer.

M907 E538 ; set extruder motor current
G21 ; set units to millimeters
G90 ; use absolute coordinates
M83 ; use relative distances for extrusion
M900 K0.05 ; Filament gcode LA 1.5
M900 K30 ; Filament gcode LA 1.0
M107
;LAYER_CHANGE
;Z:0.2
;HEIGHT:0.2
;BEFORE_LAYER_CHANGE
G92 E0.0
;0.2


G1 E-.8 F2100
G1 Z.4 F720
;AFTER_LAYER_CHANGE
;0.2
G1 X8.362 Y51.318 F10800
G1 Z.2 F720
G1 E.8 F2100
M204 S800
;TYPE:Skirt/Brim
;WIDTH:0.42
G1 F1200
G1 X118.019 Y42.93 E3.44825
G1 X132.042 Y42.936 E.4397
G1 X239.369 Y53.936 E3.38279
G1 X240.63 Y54.458 E.04278
G1 X241.372 Y55.52 E.04061
G1 X246.755 Y71.001 E.51392
G1 X247.161 Y73.314 E.07364
G1 X245.734 Y156.654 E2.61344
G1 X245.32 Y157.954 E.04278
G1 X244.109 Y158.868 E.04758
G1 X236.682 Y161.292 E.24493
G1 X144.173 Y172.196 E2.92064
G1 X105.57 Y172.183 E1.2104
G1 X5.422 Y161.294 E3.15857
G1 X4.165 Y160.764 E.04278
G1 X3.414 Y159.653 E.04203
G1 X1.096 Y152.382 E.23929
G1 X.984 Y151.66 E.02291
G1 X.985 Y143.683 E.25012
G1 X3.85 Y58.244 E2.68038
G1 X4.099 Y57.26 E.03181
G1 X6.417 Y52.625 E.1625
G1 X7.352 Y51.631 E.04278
G1 X8.305 Y51.335 E.03128
M204 S1000
; printing object vernier_calipers-Depth Gauge Support.stl id:0 copy 0
;WIPE_START
G1 F8640
G1 X11.586 Y51.084 E-.76
;WIPE_END
G1 E-.04 F2100
G1 Z.6 F720
G1 X117.987 Y48.974 F10800
G1 Z.2 F720
G1 E.8 F2100
M204 S800
;TYPE:Perimeter
;WIDTH:0.419999
G1 F1200
G1 X117.987 Y46.626 E.07362
G1 X118.526 Y46.087 E.0239
G1 X131.474 Y46.087 E.40597
G1 X132.013 Y46.626 E.0239
G1 X132.013 Y48.974 E.07362
G1 X131.474 Y49.513 E.0239
G1 X118.526 Y49.513 E.40597
G1 X118.03 Y49.017 E.02202
M204 S1000
G1 X117.61 Y49.131 F10800
M204 S800
;TYPE:External perimeter
G1 F1200
G1 X117.61 Y46.47 E.08341
G1 X118.37 Y45.71 E.03369
G1 X131.63 Y45.71 E.41577
G1 X132.39 Y46.47 E.03369
G1 X132.39 Y49.131 E.08341
G1 X131.63 Y49.89 E.03369
G1 X118.37 Y49.89 E.41577
G1 X117.652 Y49.173 E.03181
M204 S1000
G1 X117.816 Y48.788 F10800
;WIPE_START
G1 F8640
G1 X117.61 Y46.47 E-.62415
G1 X118.026 Y46.054 E-.13585
;WIPE_END
G1 E-.04 F2100
G1 Z.6 F720
G1 X131.185 Y46.201 F10800
G1 Z.2 F720
G1 E.8 F2100
M204 S800
;TYPE:Solid infill
;WIDTH:0.42257
G1 F1200
G1 X131.73 Y46.745 E.02432
G1 X131.73 Y47.282 E.01695
G1 X130.818 Y46.37 E.04072
G1 X130.281 Y46.37 E.01695
G1 X131.73 Y47.819 E.06469
G1 X131.73 Y48.356 E.01695
G1 X129.744 Y46.37 E.08866
G1 X129.207 Y46.37 E.01695
G1 X131.712 Y48.875 E.11183
G1 X131.444 Y49.144 E.01198
G1 X128.67 Y46.37 E.12381
G1 X128.134 Y46.37 E.01695
G1 X130.994 Y49.23 E.12769
G1 X130.457 Y49.23 E.01695
G1 X127.597 Y46.37 E.12769
G1 X127.06 Y46.37 E.01695
G1 X129.92 Y49.23 E.12769
G1 X129.383 Y49.23 E.01695
G1 X126.523 Y46.37 E.12769
G1 X125.986 Y46.37 E.01695
M73 P0 R130
G1 X128.846 Y49.23 E.12769
G1 X128.309 Y49.23 E.01695
G1 X125.449 Y46.37 E.12769
G1 X124.912 Y46.37 E.01695
G1 X127.772 Y49.23 E.12769
G1 X127.235 Y49.23 E.01695
G1 X124.375 Y46.37 E.12769
G1 X123.838 Y46.37 E.01695
G1 X126.699 Y49.23 E.12769
G1 X126.162 Y49.23 E.01695
G1 X123.301 Y46.37 E.12769
G1 X122.764 Y46.37 E.01695
G1 X125.625 Y49.23 E.12769
G1 X125.088 Y49.23 E.01695
G1 X122.228 Y46.37 E.12769
G1 X121.691 Y46.37 E.01695
G1 X124.551 Y49.23 E.12769
G1 X124.014 Y49.23 E.01695
G1 X121.154 Y46.37 E.12769
G1 X120.617 Y46.37 E.01695
G1 X123.477 Y49.23 E.12769
G1 X122.94 Y49.23 E.01695
G1 X120.08 Y46.37 E.12769
G1 X119.543 Y46.37 E.01695
G1 X122.403 Y49.23 E.12769
G1 X121.866 Y49.23 E.01695
G1 X119.006 Y46.37 E.12769
G1 X118.643 Y46.37 E.01146
M73 Q0 S135
G1 X118.556 Y46.457 E.00388
G1 X121.329 Y49.23 E.12381
G1 X120.793 Y49.23 E.01695
G1 X118.288 Y46.726 E.11182
G1 X118.27 Y46.743 E.0008
G1 X118.27 Y47.245 E.01582
G1 X120.256 Y49.23 E.08865
G1 X119.719 Y49.23 E.01695
G1 X118.27 Y47.782 E.06468
G1 X118.27 Y48.319 E.01695
G1 X119.182 Y49.23 E.04071
G1 X118.645 Y49.23 E.01695
G1 X118.1 Y48.686 E.02432
M204 S1000
; stop printing object vernier_calipers-Depth Gauge Support.stl id:0 copy 0
; printing object vernier_calipers-Fixed Jaw.stl id:1 copy 0
;WIPE_START
G1 F8640
G1 X118.645 Y49.23 E-.17788
G1 X119.182 Y49.23 E-.12397
G1 X118.27 Y48.319 E-.29779
G1 X118.27 Y47.782 E-.12397
G1 X118.381 Y47.893 E-.03638
;WIPE_END
G1 E-.04 F2100
G1 Z.6 F720
G1 X19.077 Y57.178 F10800
G1 Z.2 F720
G1 E.8 F2100
M204 S800
;TYPE:Support material
;WIDTH:0.42
G1 F1200
G1 X15.52 Y56.892 E.11188
G1 X14.853 Y56.109 E.03223
G1 X14.684 Y56.022 E.00599
G1 X12.101 Y55.814 E.08124
G1 X11.919 Y55.873 E.00599
G1 X10.912 Y56.73 E.04146
G1 X10.825 Y56.9 E.00599
G1 X10.337 Y62.975 E.19108
G1 X10.594 Y63.277 E.01247
G1 X209.67 Y79.292 E6.26204
G1 X209.362 Y83.12 E.1204
G1 X10.286 Y67.105 E6.26204
G1 X9.984 Y67.363 E.01247
G1 X9.677 Y71.175 E.1199
G1 X6.225 Y71.175 E.10822
G1 X6.225 Y58.323 E.40294
G1 X8.543 Y58.323 E.07267
G1 X8.543 Y53.688 E.14535
G1 X19.077 Y53.688 E.33026
G1 X19.077 Y57.121 E.10766
M204 S1000
;WIPE_START
G1 F8640
G1 X19.077 Y53.83 E-.76
;WIPE_END
G1 E-.04 F2100
G1 Z.6 F720
G1 X209.083 Y82.927 F10800
G1 Z.2 F720
G1 E.8 F2100
M204 S800
G1 F1200
G1 X209.083 Y79.586 E.10478
G1 X208.664 Y79.552 E.01318
M73 P1 R130
G1 X208.664 Y82.723 E.09944
G1 X208.245 Y82.69 E.01318
G1 X208.245 Y79.518 E.09944
G1 X207.826 Y79.484 E.01318
G1 X207.826 Y82.656 E.09944
G1 X207.407 Y82.622 E.01318
G1 X207.407 Y79.451 E.09944
G1 X206.988 Y79.417 E.01318
G1 X206.988 Y82.589 E.09944
G1 X206.569 Y82.555 E.01318
G1 X206.569 Y79.383 E.09944
G1 X206.15 Y79.35 E.01318
M73 Q1 S135
G1 X206.15 Y82.521 E.09944
G1 X205.731 Y82.487 E.01318
G1 X205.731 Y79.316 E.09944
G1 X205.312 Y79.282 E.01318
G1 X205.312 Y82.454 E.09944
G1 X204.893 Y82.42 E.01318
G1 X204.893 Y79.249 E.09944
G1 X204.474 Y79.215 E.01318
G1 X204.474 Y82.386 E.09944
G1 X204.055 Y82.353 E.01318
G1 X204.055 Y79.181 E.09944
G1 X203.636 Y79.147 E.01318
G1 X203.636 Y82.319 E.09944
G1 X203.217 Y82.285 E.01318
G1 X203.217 Y79.114 E.09944
G1 X202.798 Y79.08 E.01318
G1 X202.798 Y82.251 E.09944
G1 X202.379 Y82.218 E.01318
G1 X202.379 Y79.046 E.09944
G1 X201.96 Y79.013 E.01318
G1 X201.96 Y82.184 E.09944
G1 X201.541 Y82.15 E.01318
G1 X201.541 Y78.979 E.09944
G1 X201.122 Y78.945 E.01318
G1 X201.122 Y82.117 E.09944
G1 X200.704 Y82.083 E.01318
G1 X200.704 Y78.911 E.09944
G1 X200.285 Y78.878 E.01318
G1 X200.285 Y82.049 E.09944
G1 X199.866 Y82.016 E.01318
G1 X199.866 Y78.844 E.09944
G1 X199.447 Y78.81 E.01318
G1 X199.447 Y81.982 E.09944
G1 X199.028 Y81.948 E.01318
G1 X199.028 Y78.777 E.09944
G1 X198.609 Y78.743 E.01318
G1 X198.609 Y81.914 E.09944
G1 X198.19 Y81.881 E.01318
G1 X198.19 Y78.709 E.09944
G1 X197.771 Y78.676 E.01318
G1 X197.771 Y81.847 E.09944
G1 X197.352 Y81.813 E.01318
G1 X197.352 Y78.642 E.09944
G1 X196.933 Y78.608 E.01318
G1 X196.933 Y81.78 E.09944
G1 X196.514 Y81.746 E.01318
G1 X196.514 Y78.574 E.09944
G1 X196.095 Y78.541 E.01318
G1 X196.095 Y81.712 E.09944
G1 X195.676 Y81.678 E.01318
G1 X195.676 Y78.507 E.09944
G1 X195.257 Y78.473 E.01318
G1 X195.257 Y81.645 E.09944
G1 X194.838 Y81.611 E.01318
G1 X194.838 Y78.44 E.09944
G1 X194.419 Y78.406 E.01318
G1 X194.419 Y81.577 E.09944
G1 X194 Y81.544 E.01318
G1 X194 Y78.372 E.09944
G1 X193.581 Y78.338 E.01318
G1 X193.581 Y81.51 E.09944
G1 X193.162 Y81.476 E.01318
G1 X193.162 Y78.305 E.09944
G1 X192.743 Y78.271 E.01318
G1 X192.743 Y81.443 E.09944
G1 X192.324 Y81.409 E.01318
G1 X192.324 Y78.237 E.09944
G1 X191.905 Y78.204 E.01318
G1 X191.905 Y81.375 E.09944
G1 X191.486 Y81.341 E.01318
G1 X191.486 Y78.17 E.09944
G1 X191.067 Y78.136 E.01318
G1 X191.067 Y81.308 E.09944
G1 X190.648 Y81.274 E.01318
G1 X190.648 Y78.103 E.09944
G1 X190.229 Y78.069 E.01318
G1 X190.229 Y81.24 E.09944
G1 X189.81 Y81.207 E.01318
G1 X189.81 Y78.035 E.09944
G1 X189.391 Y78.001 E.01318
G1 X189.391 Y81.173 E.09944
G1 X188.972 Y81.139 E.01318
G1 X188.972 Y77.968 E.09944
G1 X188.553 Y77.934 E.01318
G1 X188.553 Y81.105 E.09944
G1 X188.134 Y81.072 E.01318
G1 X188.134 Y77.9 E.09944
G1 X187.715 Y77.867 E.01318
G1 X187.715 Y81.038 E.09944
G1 X187.296 Y81.004 E.01318
G1 X187.296 Y77.833 E.09944
G1 X186.877 Y77.799 E.01318
G1 X186.877 Y80.971 E.09944
G1 X186.458 Y80.937 E.01318
G1 X186.458 Y77.765 E.09944
G1 X186.039 Y77.732 E.01318
G1 X186.039 Y80.903 E.09944
G1 X185.62 Y80.87 E.01318
G1 X185.62 Y77.698 E.09944
G1 X185.201 Y77.664 E.01318
G1 X185.201 Y80.836 E.09944
G1 X184.782 Y80.802 E.01318
G1 X184.782 Y77.631 E.09944
G1 X184.363 Y77.597 E.01318
G1 X184.363 Y80.768 E.09944
G1 X183.944 Y80.735 E.01318
G1 X183.944 Y77.563 E.09944
G1 X183.525 Y77.53 E.01318
G1 X183.525 Y80.701 E.09944
G1 X183.106 Y80.667 E.01318
G1 X183.106 Y77.496 E.09944
G1 X182.687 Y77.462 E.01318
G1 X182.687 Y80.634 E.09944
G1 X182.269 Y80.6 E.01318
G1 X182.269 Y77.428 E.09944
G1 X181.85 Y77.395 E.01318
G1 X181.85 Y80.566 E.09944
G1 X181.431 Y80.532 E.01318
G1 X181.431 Y77.361 E.09944
G1 X181.012 Y77.327 E.01318
G1 X181.012 Y80.499 E.09944
G1 X180.593 Y80.465 E.01318
G1 X180.593 Y77.294 E.09944
G1 X180.174 Y77.26 E.01318
G1 X180.174 Y80.431 E.09944
G1 X179.755 Y80.398 E.01318
G1 X179.755 Y77.226 E.09944
G1 X179.336 Y77.193 E.01318
G1 X179.336 Y80.364 E.09944
G1 X178.917 Y80.33 E.01318
G1 X178.917 Y77.159 E.09944
G1 X178.498 Y77.125 E.01318
G1 X178.498 Y80.297 E.09944
G1 X178.079 Y80.263 E.01318
G1 X178.079 Y77.091 E.09944
G1 X177.66 Y77.058 E.01318
G1 X177.66 Y80.229 E.09944
G1 X177.241 Y80.195 E.01318
G1 X177.241 Y77.024 E.09944
G1 X176.822 Y76.99 E.01318
G1 X176.822 Y80.162 E.09944
G1 X176.403 Y80.128 E.01318
G1 X176.403 Y76.957 E.09944
G1 X175.984 Y76.923 E.01318
G1 X175.984 Y80.094 E.09944
G1 X175.565 Y80.061 E.01318
G1 X175.565 Y76.889 E.09944
G1 X175.146 Y76.855 E.01318
G1 X175.146 Y80.027 E.09944
G1 X174.727 Y79.993 E.01318
G1 X174.727 Y76.822 E.09944
G1 X174.308 Y76.788 E.01318
G1 X174.308 Y79.96 E.09944
G1 X173.889 Y79.926 E.01318
G1 X173.889 Y76.754 E.09944
G1 X173.47 Y76.721 E.01318
G1 X173.47 Y79.892 E.09944
G1 X173.051 Y79.858 E.01318
G1 X173.051 Y76.687 E.09944
G1 X172.632 Y76.653 E.01318
G1 X172.632 Y79.825 E.09944
G1 X172.213 Y79.791 E.01318
G1 X172.213 Y76.62 E.09944
G1 X171.794 Y76.586 E.01318
G1 X171.794 Y79.757 E.09944
G1 X171.375 Y79.724 E.01318
G1 X171.375 Y76.552 E.09944
G1 X170.956 Y76.518 E.01318
G1 X170.956 Y79.69 E.09944
G1 X170.537 Y79.656 E.01318
G1 X170.537 Y76.485 E.09944
G1 X170.118 Y76.451 E.01318
G1 X170.118 Y79.622 E.09944
G1 X169.699 Y79.589 E.01318
G1 X169.699 Y76.417 E.09944
G1 X169.28 Y76.384 E.01318
G1 X169.28 Y79.555 E.09944
G1 X168.861 Y79.521 E.01318
G1 X168.861 Y76.35 E.09944
G1 X168.442 Y76.316 E.01318
G1 X168.442 Y79.488 E.09944
G1 X168.023 Y79.454 E.01318
G1 X168.023 Y76.282 E.09944
G1 X167.604 Y76.249 E.01318
G1 X167.604 Y79.42 E.09944
G1 X167.185 Y79.387 E.01318
G1 X167.185 Y76.215 E.09944
G1 X166.766 Y76.181 E.01318
G1 X166.766 Y79.353 E.09944
G1 X166.347 Y79.319 E.01318
G1 X166.347 Y76.148 E.09944
G1 X165.928 Y76.114 E.01318
G1 X165.928 Y79.285 E.09944
G1 X165.509 Y79.252 E.01318
G1 X165.509 Y76.08 E.09944
G1 X165.09 Y76.047 E.01318
G1 X165.09 Y79.218 E.09944
G1 X164.671 Y79.184 E.01318
G1 X164.671 Y76.013 E.09944
G1 X164.253 Y75.979 E.01318
G1 X164.253 Y79.151 E.09944
G1 X163.834 Y79.117 E.01318
G1 X163.834 Y75.945 E.09944
G1 X163.415 Y75.912 E.01318
G1 X163.415 Y79.083 E.09944
G1 X162.996 Y79.049 E.01318
G1 X162.996 Y75.878 E.09944
G1 X162.577 Y75.844 E.01318
G1 X162.577 Y79.016 E.09944
G1 X162.158 Y78.982 E.01318
G1 X162.158 Y75.811 E.09944
G1 X161.739 Y75.777 E.01318
G1 X161.739 Y78.948 E.09944
G1 X161.32 Y78.915 E.01318
G1 X161.32 Y75.743 E.09944
G1 X160.901 Y75.709 E.01318
G1 X160.901 Y78.881 E.09944
G1 X160.482 Y78.847 E.01318
G1 X160.482 Y75.676 E.09944
G1 X160.063 Y75.642 E.01318
G1 X160.063 Y78.814 E.09944
G1 X159.644 Y78.78 E.01318
G1 X159.644 Y75.608 E.09944
G1 X159.225 Y75.575 E.01318
G1 X159.225 Y78.746 E.09944
G1 X158.806 Y78.712 E.01318
G1 X158.806 Y75.541 E.09944
G1 X158.387 Y75.507 E.01318
G1 X158.387 Y78.679 E.09944
G1 X157.968 Y78.645 E.01318
G1 X157.968 Y75.474 E.09944
G1 X157.549 Y75.44 E.01318
G1 X157.549 Y78.611 E.09944
G1 X157.13 Y78.578 E.01318
G1 X157.13 Y75.406 E.09944
G1 X156.711 Y75.372 E.01318
G1 X156.711 Y78.544 E.09944
G1 X156.292 Y78.51 E.01318
G1 X156.292 Y75.339 E.09944
G1 X155.873 Y75.305 E.01318
G1 X155.873 Y78.476 E.09944
G1 X155.454 Y78.443 E.01318
G1 X155.454 Y75.271 E.09944
G1 X155.035 Y75.238 E.01318
G1 X155.035 Y78.409 E.09944
G1 X154.616 Y78.375 E.01318
G1 X154.616 Y75.204 E.09944
G1 X154.197 Y75.17 E.01318
G1 X154.197 Y78.342 E.09944
G1 X153.778 Y78.308 E.01318
G1 X153.778 Y75.136 E.09944
G1 X153.359 Y75.103 E.01318
G1 X153.359 Y78.274 E.09944
G1 X152.94 Y78.241 E.01318
G1 X152.94 Y75.069 E.09944
G1 X152.521 Y75.035 E.01318
G1 X152.521 Y78.207 E.09944
G1 X152.102 Y78.173 E.01318
G1 X152.102 Y75.002 E.09944
G1 X151.683 Y74.968 E.01318
G1 X151.683 Y78.139 E.09944
G1 X151.264 Y78.106 E.01318
G1 X151.264 Y74.934 E.09944
G1 X150.845 Y74.901 E.01318
G1 X150.845 Y78.072 E.09944
G1 X150.426 Y78.038 E.01318
G1 X150.426 Y74.867 E.09944
G1 X150.007 Y74.833 E.01318
G1 X150.007 Y78.005 E.09944
G1 X149.588 Y77.971 E.01318
G1 X149.588 Y74.799 E.09944
G1 X149.169 Y74.766 E.01318
G1 X149.169 Y77.937 E.09944
G1 X148.75 Y77.904 E.01318
G1 X148.75 Y74.732 E.09944
G1 X148.331 Y74.698 E.01318
G1 X148.331 Y77.87 E.09944
G1 X147.912 Y77.836 E.01318
G1 X147.912 Y74.665 E.09944
G1 X147.493 Y74.631 E.01318
G1 X147.493 Y77.802 E.09944
G1 X147.074 Y77.769 E.01318
G1 X147.074 Y74.597 E.09944
G1 X146.655 Y74.564 E.01318
G1 X146.655 Y77.735 E.09944
G1 X146.236 Y77.701 E.01318
G1 X146.236 Y74.53 E.09944
G1 X145.818 Y74.496 E.01318
G1 X145.818 Y77.668 E.09944
M73 P1 R129
G1 X145.399 Y77.634 E.01318
G1 X145.399 Y74.462 E.09944
G1 X144.98 Y74.429 E.01318
G1 X144.98 Y77.6 E.09944
G1 X144.561 Y77.566 E.01318
G1 X144.561 Y74.395 E.09944
